src/assets/duotone/CubeScan3d.svg

<svg width="24" height="24" viewBox="0 0 24 24"  xmlns="http://www.w3.org/2000/svg">
<path opacity="0.4" d="M22 9.75C21.59 9.75 21.25 9.41 21.25 9V7C21.25 4.42 19.58 2.75 17 2.75H7C4.42 2.75 2.75 4.42 2.75 7V9C2.75 9.41 2.41 9.75 2 9.75C1.59 9.75 1.25 9.41 1.25 9V7C1.25 3.56 3.56 1.25 7 1.25H17C20.44 1.25 22.75 3.56 22.75 7V9C22.75 9.41 22.41 9.75 22 9.75Z" />
<path opacity="0.4" d="M17 22.75H7C3.56 22.75 1.25 20.44 1.25 17V15C1.25 14.59 1.59 14.25 2 14.25C2.41 14.25 2.75 14.59 2.75 15V17C2.75 19.58 4.42 21.25 7 21.25H17C19.58 21.25 21.25 19.58 21.25 17V15C21.25 14.59 21.59 14.25 22 14.25C22.41 14.25 22.75 14.59 22.75 15V17C22.75 20.44 20.44 22.75 17 22.75Z" />
<path d="M16.3999 8.20999L12.6399 6.17996C12.2399 5.96996 11.7699 5.96996 11.3699 6.17996L7.60992 8.20999C7.33992 8.35999 7.16992 8.64995 7.16992 8.97995C7.16992 9.30995 7.33992 9.59997 7.60992 9.74997L11.3699 11.78C11.5699 11.89 11.7899 11.94 12.0099 11.94C12.2299 11.94 12.4499 11.89 12.6499 11.78L16.4099 9.74997C16.6799 9.59997 16.8499 9.30995 16.8499 8.97995C16.8399 8.64995 16.6699 8.35999 16.3999 8.20999Z" />
<path d="M10.7402 12.4699L7.24023 10.7199C6.97023 10.5899 6.66022 10.6 6.40022 10.76C6.14022 10.92 5.99023 11.1899 5.99023 11.4899V14.7999C5.99023 15.3699 6.31024 15.89 6.82024 16.14L10.3202 17.89C10.4402 17.95 10.5702 17.9799 10.7102 17.9799C10.8702 17.9799 11.0202 17.9399 11.1602 17.8499C11.4202 17.6899 11.5702 17.4199 11.5702 17.1199V13.8099C11.5702 13.2399 11.2602 12.7299 10.7402 12.4699Z" />
<path d="M17.5899 10.76C17.3299 10.6 17.0199 10.5899 16.7499 10.7199L13.2499 12.4699C12.7399 12.7299 12.4199 13.2399 12.4199 13.8099V17.1199C12.4199 17.4199 12.5699 17.6899 12.8299 17.8499C12.9699 17.9399 13.1199 17.9799 13.2799 17.9799C13.4099 17.9799 13.5399 17.95 13.6699 17.89L17.1699 16.14C17.6799 15.88 17.9999 15.3699 17.9999 14.7999V11.4899C17.9999 11.1899 17.8499 10.92 17.5899 10.76Z" />
</svg>

<?xml version="1.0" encoding="UTF-8"?>
<svg width="24" height="24" viewBox="0 0 24 24" xmlns="http://www.w3.org/2000/svg">
 <path d="m22 9.75c-0.41 0-0.75-0.34-0.75-0.75v-2c0-2.58-1.67-4.25-4.25-4.25h-10c-2.58 0-4.25 1.67-4.25 4.25v2c0 0.41-0.34 0.75-0.75 0.75s-0.75-0.34-0.75-0.75v-2c0-3.44 2.31-5.75 5.75-5.75h10c3.44 0 5.75 2.31 5.75 5.75v2c0 0.41-0.34 0.75-0.75 0.75z" opacity=".4"/>
 <path d="m17 22.75h-10c-3.44 0-5.75-2.31-5.75-5.75v-2c0-0.41 0.34-0.75 0.75-0.75s0.75 0.34 0.75 0.75v2c0 2.58 1.67 4.25 4.25 4.25h10c2.58 0 4.25-1.67 4.25-4.25v-2c0-0.41 0.34-0.75 0.75-0.75s0.75 0.34 0.75 0.75v2c0 3.44-2.31 5.75-5.75 5.75z" opacity=".4"/>
 <path d="m16.4 8.21-3.76-2.03c-0.4-0.21-0.87-0.21-1.27 0l-3.76 2.03c-0.27 0.15-0.44 0.43996-0.44 0.76996s0.17 0.62002 0.44 0.77002l3.76 2.03c0.2 0.11 0.42 0.16 0.64 0.16s0.44-0.05 0.64-0.16l3.76-2.03c0.27-0.15 0.44-0.44002 0.44-0.77002-0.01-0.33-0.18-0.61996-0.45-0.76996z"/>
 <path d="m10.74 12.47-3.5-1.75c-0.27-0.13-0.58001-0.1199-0.84001 0.0401s-0.40999 0.4299-0.40999 0.7299v3.31c0 0.57 0.32001 1.0901 0.83001 1.3401l3.5 1.75c0.12 0.06 0.25 0.0899 0.39 0.0899 0.16 0 0.31-0.04 0.45-0.13 0.26-0.16 0.41-0.43 0.41-0.73v-3.31c0-0.57-0.31-1.08-0.83-1.34z"/>
 <path d="m17.59 10.76c-0.26-0.16-0.57-0.1701-0.84-0.0401l-3.5 1.75c-0.51 0.26-0.83 0.77-0.83 1.34v3.31c0 0.3 0.15 0.57 0.41 0.73 0.14 0.09 0.29 0.13 0.45 0.13 0.13 0 0.26-0.0299 0.39-0.0899l3.5-1.75c0.51-0.26 0.83-0.7701 0.83-1.3401v-3.31c0-0.3-0.15-0.5699-0.41-0.7299z"/>
</svg>
